images/scroll-down.svg

<?xml version="1.0" standalone="no"?><!-- Generator: Gravit.io --><svg xmlns="http://www.w3.org/2000/svg" xmlns:xlink="http://www.w3.org/1999/xlink" style="isolation:isolate" width="30" height="30"><path d=" M 14.999999999999996 27.659846547314576 L 15.882352941176467 26.777493606138105 L 30 12.65984654731458 L 28.235294117647058 10.933503836317136 L 14.999999999999996 24.168797953964194 L 1.764705882352935 10.933503836317133 L -7.105427357601002e-15 12.659846547314576 L 14.117647058823525 26.777493606138105 L 14.999999999999996 27.659846547314576 Z  M 14.999999999999996 19.066496163682864 L 15.882352941176471 18.184143222506393 L 30 4.066496163682864 L 28.235294117647058 2.3401534526854206 L 15 15.575447570332479 L 1.764705882352942 2.340153452685417 L 0 4.06649616368286 L 14.117647058823529 18.184143222506393 L 14.999999999999996 19.066496163682864 Z " fill-rule="evenodd" fill="rgb(0,0,0)" stroke-width="3.125" stroke="rgba(0,0,0,0)" stroke-linejoin="miter" stroke-linecap="butt"/></svg>

<svg xmlns="http://www.w3.org/2000/svg" width="30" height="30" style="isolation:isolate"><path fill-rule="evenodd" stroke="rgba(0,0,0,0)" stroke-width="3.125" d="M15 27.66l.882-.883L30 12.66l-1.765-1.726L15 24.17 1.765 10.933 0 12.66l14.118 14.117.882.883zm0-8.594l.882-.882L30 4.066 28.235 2.34 15 15.575 1.765 2.34 0 4.066l14.118 14.118.882.882z"/></svg>
